X:1
T:Over and Over
T:Over and Over
T:Ballington Booth, arr. William J. Kirkpatrick
T:Ballington Booth, 1898
T:Public Domain Courtesy of the Cyber Hymnal™
T:Public Domain Courtesy of the Cyber Hymnal™
C:Ballington Booth, arr. William J. Kirkpatrick
Z:Public Domain
Z:Courtesy of the Cyber Hymnal™
%%score ( 1 2 ) ( 3 4 )
L:1/8
Q:1/4=105
M:6/8
K:D
V:1 treble 
V:2 treble 
V:3 bass 
V:4 bass 
V:1
 [FA]3 [GB]2 [FA] | [FA]3 [DF]2 [DF] | [DF]2 D F2 [DF] | [CE]3- [CE]2 z | [Gc]3 [Gc]2 [Ge] | %5
w: 1.~O- ver and|o- ver I|stood up- on the|shore; *|O- ver and|
w: 2.~O- ver and|o- ver I’ve|heard my Sav- ior’s|voice; *|O- ver and|
w: 3.~O- ver and|o- ver I’ll|sing this glor- ious|song, *|O- ver and|
 ([Ge]2 [Ec]) [CA]2 [CA] | (AB)[CA] [CE]2 [C^E] | [DF]3- [DF]2 [FA] | [FA]2 [FA] ([FA][GB])[Gc] | %9
w: o- * ver I~said|I * would doubt no|more; * But|as the sea * came|
w: o- * ver He|said, * “Make Me your|choice; * Now|face the waves * and|
w: o- * ver be-|fore * the gath- ering|throng; * How|o’er my heart * the|
 [Fd]2 [Fd] [FA]2 [FA] | [FA]2 [FA] ([FA][GB])[Gc] | [Fd]2 [Fd] [FA]2 [FA] | [FA][DF]D [CE]2 D | %13
w: roll- ing in, In|bound- less waves * that|cleanse from sin, I|doubt- ed their sav- ing|
w: tread the sea, Look|up in faith * and|fol- low Me”; I|an- swered, “I’ll prove their|
w: sea pre- vailed, And|how His love * has|ne- ver failed, For|ev- er I’ll trust His|
 D3- D2 z ||[M:3/4][Q:1/4=170]"^Refrain" [DF]6 | [FA]4 [Fd]2 | [Ge]6 | [GB]6 | [Gc]4 [GB]2 | %19
w: power. *||||||
w: power.” *|O-|ver and|o-|ver,|like a|
w: power; *||||||
 [EA]4 [CG]2 | [DF]6- | [DF]4 z2 | [DF]4 [FA]2 | [Fd]4 [Fd]2 | [Ge]6 | [GB]6 | [Gc]4 A2 | %27
w: ||||||||
w: might- y|sea,||Comes the|love of|Je-|sus,|Roll- ing|
w: ||||||||
 [Af]4 [Ge]2 | [Fd]6- | [Fd]4 z2 |] x6 |] %31
w: ||||
w: o- ver|me.|||
w: ||||
V:2
 x6 | x6 | x2 D F2 x | x6 | x6 | x6 | C2 x4 | x6 | x6 | x6 | x6 | x6 | x2 D x D x | D3- D2 x || %14
[M:3/4] x6 | x6 | x6 | x6 | x6 | x6 | x6 | x6 | x6 | x6 | x6 | x6 | x4 A2 | x6 | x6 | x6 |] x6 |] %31
V:3
 (D,F,A,) (D,F,)A, | (D,F,A,) (D,F,)A, | (D,F,)A, (D,F,)A, | (A,,C,E,A,E,C,) | %4
w: ||||
 (B,,E,A,) (A,,E,)A, | (A,,E,A,) (A,,E,)A, | (A,,E,)A, (A,,E,)A, | (D,F,A,B,A,)F, | %8
w: ||||
 (D,F,)A, (D,G,)A, | (D,F,)A, (D,F,)A, | (D,F,)A, (D,G,)A, | (D,F,)A, (DA,)F, | %12
w: ||||
 [D,F,A,] z2 [A,,G,] z2 | [D,F,A,]3- [D,F,A,]2 z ||[M:3/4] [D,A,]2 [D,A,]2 [D,A,]2 | %15
w: ||O- ver and|
 [D,D]2 [D,D]2 z2 | [G,B,]2 [G,B,]2 [G,B,]2 | [G,E]2 [G,E]2 z2 | [A,E]4 [A,D]2 | [A,,C]4 [A,,A,]2 | %20
w: o- ver,|o- ver and|o- ver,|||
 A,4 A,2 | B,2 A,2 F,2 | [D,A,]4 [D,D]2 | [D,A,]4 [D,A,]2 | [G,B,]4 [G,B,]2 | [G,E]4 [G,E]2 | %26
w: might- y|sea, There the||* love|of Je-|sus, Roll-|
 [A,E]4 [A,C]2 | x6 | (D2 B,2) [A,C]2 | A,4 A,2 |] [D,A,]4 z2 |] %31
w: ing, roll-||ing * o-|ver me.||
V:4
 x6 | x6 | x6 | x6 | x6 | x6 | x6 | x6 | x6 | x6 | x6 | x6 | x6 | x6 ||[M:3/4] x6 | x6 | x6 | x6 | %18
 x6 | x6 | (D,2 F,2) A,2 | (B,2 A,2) F,2 | x6 | x6 | x6 | x6 | x6 | x6 | A,4 x2 | (D,2 F,2) A,2 |] %30
 x6 |] %31

